admin/src/theme/img/safetyequipment/big/G.svg

<svg width="32" height="32" viewBox="0 0 32 32" xmlns="http://www.w3.org/2000/svg">
  <g fill="none" fill-rule="evenodd">
    <path d="M0 0h32v32H0z"/>
    <path d="M16 4.21333333c1.8266667 0 3.4.65333334 4.7066667 1.96 1.3066666 1.30666667 1.96 2.88 1.96 4.70666667 0 1.8266667-.6533334 3.4266667-1.96 4.72C19.4 16.8933333 17.8266667 17.5466667 16 17.5466667c-1.8266667 0-3.4-.6533334-4.7066667-1.9466667-1.30666663-1.2933333-1.95999997-2.8666667-1.95999997-4.72 0-1.85333333.65333334-3.4 1.95999997-4.70666667 1.3066667-1.30666666 2.88-1.96 4.7066667-1.96ZM16 5.16c-1.6 0-2.9466667.56-4.0533333 1.69333333C10.84 7.98666667 10.2933333 9.32 10.2933333 10.8666667c0 1.5466666.5466667 2.9466666 1.6533334 4.0533333C13.0533333 16.0266667 14.4 16.5733333 16 16.5733333s2.92-.5466666 4.04-1.6533333 1.68-2.4533333 1.68-4.0533333c0-1.60000003-.56-2.88000003-1.68-4.01333337C18.92 5.72 17.5733333 5.16 16 5.16Zm-4.76 25.6933333h9.52V32h-9.52v-1.1466667Zm8 .04L16 18.7866667l-3.24 12.1066666h6.48ZM12.96 7.82666667h6.0933333V13.92H12.96V7.82666667Zm1.1466667 1.14666666v3.79999997h3.8V8.97333333h-3.8ZM15.44 13.92v2.6666667h1.1466667V13.92H15.44Zm0 3.6933333h1.1466667v1.1733334H15.44v-1.1733334Zm0 3.3066667v-2.1333333h.5733333L15.44 20.92Zm1.1466667-.04-.5733334-2.0933333h.5733334V20.88Z" fill="#EC0E0E" fill-rule="nonzero"/>
  </g>
</svg>

<?xml version="1.0" encoding="UTF-8"?>
<svg width="32px" height="32px" viewBox="0 0 32 32" version="1.1" xmlns="http://www.w3.org/2000/svg" xmlns:xlink="http://www.w3.org/1999/xlink">
    <title>F16A4898-EEA1-46F7-9A93-38AB0CEB9A36</title>
    <g id="Squat-laskuri" stroke="none" stroke-width="1" fill="none" fill-rule="evenodd">
        <g id="colors_and_typography" transform="translate(-1006.000000, -1002.000000)">
            <g id="turvalaite_ikonit" transform="translate(718.000000, 906.000000)">
                <g id="Asset-33" transform="translate(288.000000, 96.000000)">
                    <rect id="Rectangle" x="0" y="0" width="32" height="32"></rect>
                    <path d="M16,4.21333333 C17.8266667,4.21333333 19.4,4.86666667 20.7066667,6.17333333 C22.0133333,7.48 22.6666667,9.05333333 22.6666667,10.88 C22.6666667,12.7066667 22.0133333,14.3066667 20.7066667,15.6 C19.4,16.8933333 17.8266667,17.5466667 16,17.5466667 C14.1733333,17.5466667 12.6,16.8933333 11.2933333,15.6 C9.98666667,14.3066667 9.33333333,12.7333333 9.33333333,10.88 C9.33333333,9.02666667 9.98666667,7.48 11.2933333,6.17333333 C12.6,4.86666667 14.1733333,4.21333333 16,4.21333333 L16,4.21333333 Z M16,5.16 C14.4,5.16 13.0533333,5.72 11.9466667,6.85333333 C10.84,7.98666667 10.2933333,9.32 10.2933333,10.8666667 C10.2933333,12.4133333 10.84,13.8133333 11.9466667,14.92 C13.0533333,16.0266667 14.4,16.5733333 16,16.5733333 C17.6,16.5733333 18.92,16.0266667 20.04,14.92 C21.16,13.8133333 21.72,12.4666667 21.72,10.8666667 C21.72,9.26666667 21.16,7.98666667 20.04,6.85333333 C18.92,5.72 17.5733333,5.16 16,5.16 L16,5.16 Z M11.24,30.8533333 L20.76,30.8533333 L20.76,32 L11.24,32 L11.24,30.8533333 Z M19.24,30.8933333 L16,18.7866667 L12.76,30.8933333 L19.2266667,30.8933333 L19.24,30.8933333 Z M12.96,7.82666667 L19.0533333,7.82666667 L19.0533333,13.92 L12.96,13.92 L12.96,7.82666667 Z M14.1066667,8.97333333 L14.1066667,12.7733333 L17.9066667,12.7733333 L17.9066667,8.97333333 L14.1066667,8.97333333 Z M15.44,13.92 L15.44,16.5866667 L16.5866667,16.5866667 L16.5866667,13.92 L15.44,13.92 Z M15.44,17.6133333 L16.5866667,17.6133333 L16.5866667,18.7866667 L15.44,18.7866667 L15.44,17.6133333 Z M15.44,20.92 L15.44,18.7866667 L16.0133333,18.7866667 L15.44,20.92 Z M16.5866667,20.88 L16.0133333,18.7866667 L16.5866667,18.7866667 L16.5866667,20.88 Z" id="Shape" fill="#EC0E0E" fill-rule="nonzero"></path>
                </g>
            </g>
        </g>
    </g>
</svg>
